Collapse/img/other/icon_discord_hover.svg

<svg width="22" height="16" viewBox="0 0 22 16" fill="none" xmlns="http://www.w3.org/2000/svg">
<path d="M18.3334 2.50008C18.3334 2.50008 16.2315 0.854665 13.7501 0.666748L13.5264 1.11454C15.7695 1.66408 16.7989 2.44966 17.8751 3.41675C16.0202 2.46983 14.1901 1.58341 11.0001 1.58341C7.81008 1.58341 5.97996 2.46983 4.12508 3.41675C5.20125 2.44966 6.42591 1.57608 8.47375 1.11454L8.25008 0.666748C5.64675 0.911956 3.66675 2.50008 3.66675 2.50008C3.66675 2.50008 1.31962 5.90366 0.916748 12.5834C3.28175 15.3119 6.87508 15.3334 6.87508 15.3334L7.62675 14.3324C6.35075 13.8887 4.91158 13.0972 3.66675 11.6667C5.15083 12.7897 7.3907 13.9584 11.0001 13.9584C14.6095 13.9584 16.8493 12.7897 18.3334 11.6667C17.089 13.0972 15.6499 13.8887 14.3734 14.3324L15.1251 15.3334C15.1251 15.3334 18.7184 15.3119 21.0834 12.5834C20.6805 5.90366 18.3334 2.50008 18.3334 2.50008ZM8.02091 10.7501C7.1345 10.7501 6.41675 9.92966 6.41675 8.91675C6.41675 7.90383 7.1345 7.08341 8.02091 7.08341C8.90733 7.08341 9.62508 7.90383 9.62508 8.91675C9.62508 9.92966 8.90733 10.7501 8.02091 10.7501ZM13.9792 10.7501C13.0928 10.7501 12.3751 9.92966 12.3751 8.91675C12.3751 7.90383 13.0928 7.08341 13.9792 7.08341C14.8657 7.08341 15.5834 7.90383 15.5834 8.91675C15.5834 9.92966 14.8657 10.7501 13.9792 10.7501Z" fill="#9562EE"/>
</svg>

<svg width="22" height="16" fill="none" xmlns="http://www.w3.org/2000/svg"><path d="M18.333 2.5S16.232.855 13.75.667l-.224.448c2.244.55 3.273 1.335 4.35 2.302C16.02 2.47 14.19 1.583 11 1.583c-3.19 0-5.02.887-6.875 1.834 1.076-.967 2.3-1.84 4.349-2.302L8.25.667C5.647.912 3.667 2.5 3.667 2.5S1.32 5.904.917 12.583c2.365 2.729 5.958 2.75 5.958 2.75l.752-1a9.183 9.183 0 01-3.96-2.666C5.15 12.79 7.39 13.958 11 13.958c3.61 0 5.85-1.168 7.333-2.291a9.177 9.177 0 01-3.96 2.665l.752 1.001s3.593-.021 5.958-2.75c-.402-6.68-2.75-10.083-2.75-10.083zM8.021 10.75c-.887 0-1.604-.82-1.604-1.833s.718-1.834 1.604-1.834c.886 0 1.604.82 1.604 1.834 0 1.013-.718 1.833-1.604 1.833zm5.958 0c-.886 0-1.604-.82-1.604-1.833s.718-1.834 1.604-1.834c.887 0 1.604.82 1.604 1.834 0 1.013-.717 1.833-1.604 1.833z" fill="#9562EE"/></svg>
